X: 20324
T: John Brosnan's
R: polka
M: 2/4
K: Gmajor
|:D EF|G2 Ge|dB Be|dB GG/A/|BA AB/A/|
G>F Ge|dB Be|dB AB/A/|G:|
|:d ef|ga/g/ fd|ed BG|ga/g/ f/e/d|e2 ef|
g2 f2|ed BG|A>^G AB/A/|G:|
|:A B/c/d|g2 a^g/a/|b>c’ ba|gf ef|g2 gd|
eg/e/ dB|eg/e/ dB|dB AB/A/|G:|

